svg/fluentui-system-icons/ic_fluent_design_ideas_24_regular.svg

<svg width="24" height="24" viewBox="0 0 24 24" fill="none" xmlns="http://www.w3.org/2000/svg">
<path d="M5.57489 2.07403C5.83474 2.19892 6 2.4617 6 2.75001C6 3.57985 6.31211 4.05763 6.70313 4.63948L6.73156 4.68175C7.0641 5.17579 7.5 5.8234 7.5 6.75001C7.5 7.69552 7.02282 8.52959 6.29615 9.02452C6.48733 9.1848 6.65672 9.38248 6.80225 9.61803C7.27801 10.388 7.5 11.5645 7.5 13.2549C7.5 14.967 7.27003 17.023 6.89541 18.6644C6.70914 19.4806 6.47843 20.2335 6.20272 20.7994C6.06598 21.08 5.89948 21.3541 5.69217 21.5685C5.48714 21.7804 5.17035 22.0049 4.75 22.0049C4.32965 22.0049 4.01286 21.7804 3.80783 21.5685C3.60052 21.3541 3.43402 21.08 3.29728 20.7994C3.02157 20.2335 2.79086 19.4806 2.60459 18.6644C2.22997 17.023 2 14.967 2 13.2549C2 11.5645 2.22199 10.388 2.69775 9.61803C2.84328 9.38248 3.01267 9.1848 3.20385 9.02452C2.47718 8.52959 2 7.69552 2 6.75001C2 6.38181 2.00034 5.74889 2.38341 4.93168C2.75829 4.13192 3.47066 3.21301 4.78148 2.16436C5.00661 1.98425 5.31504 1.94914 5.57489 2.07403ZM3.5 6.74875V6.75001C3.5 7.44036 4.05964 8.00001 4.75 8.00001C5.44036 8.00001 6 7.44036 6 6.75001C6 6.31097 5.81518 6.00743 5.45814 5.47615L5.44592 5.45796C5.21705 5.11747 4.94673 4.71532 4.75381 4.19756C4.21053 4.74999 3.9105 5.208 3.74159 5.56833C3.5 6.08374 3.5 6.4505 3.5 6.74875ZM3.97383 10.4065C3.72572 10.808 3.5 11.6315 3.5 13.2549C3.5 14.8565 3.71774 16.8005 4.06698 18.3306C4.24264 19.1003 4.44289 19.726 4.64574 20.1424C4.68308 20.219 4.71806 20.2834 4.75 20.3369C4.78194 20.2834 4.81692 20.219 4.85426 20.1424C5.05711 19.726 5.25736 19.1003 5.43302 18.3306C5.78226 16.8005 6 14.8565 6 13.2549C6 11.6315 5.77428 10.808 5.52617 10.4065C5.41327 10.2237 5.30119 10.1372 5.20105 10.0886C5.09322 10.0363 4.95068 10.0049 4.75 10.0049C4.54932 10.0049 4.40678 10.0363 4.29895 10.0886C4.19881 10.1372 4.08673 10.2237 3.97383 10.4065ZM9.99994 14.917C9.46162 14.8267 8.94761 14.6647 8.46806 14.4412C8.48904 14.0349 8.49994 13.637 8.49994 13.2549C8.49994 13.0791 8.49768 12.9066 8.49298 12.7376C8.94409 13.0407 9.4531 13.2644 9.99994 13.3885V10.5C9.99994 9.67157 10.6715 9 11.4999 9H15.4999C15.4999 6.51472 13.4852 4.5 10.9999 4.5C9.97153 4.5 9.0237 4.84498 8.26586 5.42552C8.06633 4.8731 7.78116 4.44995 7.58275 4.15554L7.54248 4.09572C8.51976 3.40549 9.7125 3 10.9999 3C14.3136 3 16.9999 5.68629 16.9999 9H20.4999C21.3284 9 21.9999 9.67157 21.9999 10.5V19.5C21.9999 20.3284 21.3284 21 20.4999 21H11.4999C10.6715 21 9.99994 20.3284 9.99994 19.5V14.917ZM11.4999 14.9795V19.5H20.4999V10.5H16.8109C16.185 12.932 14.0726 14.7672 11.4999 14.9795ZM15.2439 10.5H11.4999V13.4725C13.239 13.2803 14.6794 12.097 15.2439 10.5Z" fill="#212121"/>
</svg>

<svg xmlns="http://www.w3.org/2000/svg" width="24" height="24"><path d="M5.575 2.074A.75.75 0 0 1 6 2.75c0 .83.312 1.308.703 1.89l.029.042c.332.494.768 1.141.768 2.068 0 .946-.477 1.78-1.204 2.275.191.16.36.357.506.593.476.77.698 1.947.698 3.637 0 1.712-.23 3.768-.605 5.41-.186.816-.417 1.569-.692 2.134a3.043 3.043 0 0 1-.51.77c-.206.211-.523.436-.943.436-.42 0-.737-.225-.942-.436a2.995 2.995 0 0 1-.51-.77c-.276-.566-.507-1.318-.693-2.135A26.05 26.05 0 0 1 2 13.254c0-1.69.222-2.866.698-3.636a2.44 2.44 0 0 1 .506-.593A2.747 2.747 0 0 1 2 6.75c0-.368 0-1.001.383-1.818.375-.8 1.088-1.719 2.398-2.768a.75.75 0 0 1 .794-.09ZM3.5 6.749v.001a1.25 1.25 0 0 0 2.5 0c0-.439-.185-.743-.542-1.274l-.012-.018c-.229-.34-.5-.743-.692-1.26-.543.552-.843 1.01-1.012 1.37-.242.516-.242.883-.242 1.18Zm.474 3.657c-.248.402-.474 1.226-.474 2.849 0 1.601.218 3.545.567 5.076.176.77.376 1.395.579 1.811.037.077.072.141.104.195.032-.054.067-.118.104-.195.203-.416.403-1.042.579-1.811.35-1.53.567-3.474.567-5.076 0-1.623-.226-2.447-.474-2.849a.786.786 0 0 0-.325-.317 1.021 1.021 0 0 0-.451-.084c-.2 0-.343.031-.451.084a.786.786 0 0 0-.325.317ZM10 14.918a5.957 5.957 0 0 1-1.532-.476 23.098 23.098 0 0 0 .025-1.703c.451.303.96.526 1.507.65V10.5A1.5 1.5 0 0 1 11.5 9h4a4.5 4.5 0 0 0-7.234-3.574c-.2-.553-.485-.976-.683-1.27l-.04-.06A6 6 0 0 1 17 9h3.5a1.5 1.5 0 0 1 1.5 1.5v9a1.5 1.5 0 0 1-1.5 1.5h-9a1.5 1.5 0 0 1-1.5-1.5v-4.583Zm1.5.063v4.52h9v-9h-3.69a6.004 6.004 0 0 1-5.31 4.48Zm3.744-4.48H11.5v2.973a4.504 4.504 0 0 0 3.744-2.973Z"/></svg>
